Papirus/24x24/apps/ente.svg

<svg width="24" height="24" version="1.1" xmlns="http://www.w3.org/2000/svg">
 <g>
  <rect x="2" y="2.5" width="20" height="20" ry="3.9458363" style="opacity:.2"/>
  <rect x="2" y="2" width="20" height="20" ry="3.9458363" style="fill:#444444"/>
  <g>
   <path d="m9.67355 11.5h4.69435c0-1.4899-1.3429-2-2.3679-2.00005-1.0729-5e-5 -2.32645 0.54055-2.32645 2.00005zm-2.6729 1.1428c-0.0417-2.613 1.97035-5.1428 5.01995-5.1428 2.6766 0 4.2596 1.84365 4.756 3.6959 0.1812 0.6765 0.2234 1.609 0.2234 2.3041h-7.32645c0 0.9868 0.78115 1.9604 2.32645 2 1.5329 0 2.2052-0.9343 2.3679-1.2159l1.8476 1.1754c-0.7224 1.2176-1.8 2.0405-4.1949 2.0405-2.28185 0-4.97015-1.7365-5.01995-4.8572z" style="opacity:.2"/>
   <path d="m9.67355 11h4.69435c0-1.4898-1.3429-1.99995-2.3679-2-1.0729-5e-5 -2.32645 0.54055-2.32645 2zm-2.6729 1.1428c-0.0417-2.61295 1.97035-5.14275 5.01995-5.14275 2.6766 0 4.2596 1.84365 4.756 3.69595 0.1812 0.6764 0.2234 1.6089 0.2234 2.304h-7.32645c0 0.9869 0.78115 1.9604 2.32645 2 1.5329 0 2.2052-0.9343 2.3679-1.2159l1.8476 1.1754c-0.7224 1.2177-1.8 2.0405-4.1949 2.0405-2.28185 0-4.97015-1.7365-5.01995-4.8572z" style="fill:#e6e6e6"/>
   <path d="m12.0215 7c-3.04962 0-5.0632 2.52958-5.0215 5.1426 8.8e-4 0.0553 0.00529 0.1096 0.00781 0.164 0.12732-2.48942 2.09521-4.8066 5.01369-4.8066 2.6765 0 4.2595 1.84301 4.7558 3.6953 0.1407 0.5251 0.1965 1.2019 0.2149 1.8047h0.0078c0-0.6951-0.0414-1.6283-0.2227-2.3047-0.4963-1.85229-2.0793-3.6953-4.7558-3.6953zm-2.29298 4c-0.0355 0.1528-0.05469 0.3199-0.05469 0.5h4.69337c0-0.181-0.02-0.3471-0.0567-0.5h-4.58198zm-0.05469 2.5c0 0.9869 0.78087 1.9604 2.32617 2 1.5329 0 2.2046-0.9351 2.3672-1.2168l1.6172 1.0293c0.0807-0.1139 0.1579-0.2312 0.2304-0.3535l-1.8476-1.1758c-0.1626 0.2817-0.8343 1.2168-2.3672 1.2168-1.2808-0.0328-2.03461-0.7082-2.25586-1.5h-0.07031z" style="fill:#ffffff;opacity:.2"/>
  </g>
  <path d="M 5.94629 2 C 3.7603 2 2 3.7603 2 5.94629 L 2 6.44629 C 2 4.2603 3.7603 2.5 5.94629 2.5 L 18.0537 2.5 C 20.2397 2.5 22 4.2603 22 6.44629 L 22 5.94629 C 22 3.7603 20.2397 2 18.0537 2 Z" style="fill:#ffffff;opacity:.1"/>
 </g>
</svg>

<svg xmlns="http://www.w3.org/2000/svg" width="24" height="24" version="1.1">
 <rect style="opacity:0.2" width="20" height="20" x="2" y="2.5" ry="4"/>
 <rect style="fill:#444444" width="20" height="20" x="2" y="2" ry="4"/>
 <path style="fill:#ffffff;opacity:0.1" d="M 6 2 C 3.784 2 2 3.784 2 6 L 2 6.5 C 2 4.284 3.784 2.5 6 2.5 L 18 2.5 C 20.216 2.5 22 4.284 22 6.5 L 22 6 C 22 3.784 20.216 2 18 2 L 6 2 z"/>
 <path style="opacity:0.2" d="M 9.674,11.5 H 14.368 C 14.368,10.01 13.025,9.5 12,9.5 10.927,9.5 9.674,10.041 9.674,11.5 Z M 7.001,12.643 C 6.959,10.03 8.971,7.5 12.021,7.5 14.697,7.5 16.28,9.344 16.777,11.196 16.958,11.872 17,12.805 17,13.5 H 9.674 C 9.674,14.487 10.455,15.46 12,15.5 13.533,15.5 14.205,14.566 14.368,14.284 L 16.216,15.459 C 15.493,16.677 14.416,17.5 12.021,17.5 9.739,17.5 7.051,15.764 7.001,12.643 Z"/>
 <path style="fill:#e6e6e6" d="M 9.674,11 H 14.368 C 14.368,9.51 13.025,9 12,9 10.927,9 9.674,9.54 9.674,11 Z M 7.001,12.143 C 6.959,9.53 8.971,7 12.021,7 14.697,7 16.28,8.844 16.777,10.696 16.958,11.372 17,12.305 17,13 H 9.674 C 9.674,13.987 10.455,14.96 12,15 13.533,15 14.205,14.066 14.368,13.784 L 16.216,14.959 C 15.493,16.177 14.416,17 12.021,17 9.739,17 7.051,15.264 7.001,12.143 Z"/>
 <path style="fill:#ffffff;opacity:0.2" d="M 12.021 7 C 8.9715 7 6.96 9.5296 7.002 12.143 C 7.0029 12.199 7.0071 12.255 7.0098 12.311 C 7.135 9.8196 9.1011 7.5 12.021 7.5 C 14.697 7.5 16.28 9.3433 16.777 11.195 C 16.918 11.72 16.974 12.397 16.992 13 L 17 13 C 17 12.305 16.958 11.371 16.777 10.695 C 16.28 8.8433 14.697 7 12.021 7 z M 9.7285 11 C 9.693 11.153 9.6738 11.32 9.6738 11.5 L 14.367 11.5 C 14.367 11.319 14.347 11.153 14.311 11 L 9.7285 11 z M 9.6738 13.5 C 9.6738 14.487 10.455 15.46 12 15.5 C 13.533 15.5 14.204 14.565 14.367 14.283 L 15.986 15.312 C 16.067 15.199 16.144 15.081 16.217 14.959 L 14.367 13.783 C 14.204 14.065 13.533 15 12 15 C 10.719 14.967 9.9654 14.292 9.7441 13.5 L 9.6738 13.5 z"/>
</svg>
